svgs/regular/signal-slash.svg

<svg xmlns="http://www.w3.org/2000/svg" viewBox="0 0 640 512"><!-- Font Awesome Pro 6.0.0-alpha2 by @fontawesome - https://fontawesome.com License - https://fontawesome.com/license (Commercial License) --><path d="M191.999 288C178.749 288 167.999 298.75 167.999 312V488C167.999 501.25 178.749 512 191.999 512S215.999 501.25 215.999 488V312C215.999 298.75 205.249 288 191.999 288ZM63.999 384C50.749 384 39.999 394.75 39.999 408V488C39.999 501.25 50.749 512 63.999 512S87.999 501.25 87.999 488V408C87.999 394.75 77.249 384 63.999 384ZM295.999 488C295.999 501.25 306.749 512 319.999 512S343.999 501.25 343.999 488V365.859L295.999 328.238V488ZM423.999 488C423.999 501.25 434.749 512 447.999 512S471.999 501.25 471.999 488V466.184L423.999 428.562V488ZM630.812 469.113L599.999 444.961V24C599.999 10.75 589.249 0 575.999 0S551.999 10.75 551.999 24V407.344L471.999 344.641V120C471.999 106.75 461.249 96 447.999 96S423.999 106.75 423.999 120V307.016L343.999 244.312V216C343.999 202.75 333.249 192 319.999 192C309.599 192 300.953 198.711 297.622 207.965L38.812 5.113C28.343 -3.059 13.312 -1.246 5.109 9.191C-3.063 19.629 -1.235 34.723 9.187 42.895L601.187 506.895C605.593 510.332 610.796 512.004 615.984 512.004C623.109 512.004 630.156 508.848 634.89 502.816C643.062 492.379 641.234 477.285 630.812 469.113Z"/></svg>

<svg xmlns="http://www.w3.org/2000/svg" viewBox="0 0 640 512"><!--! Font Awesome Pro 6.4.0 by @fontawesome - https://fontawesome.com License - https://fontawesome.com/license (Commercial License) Copyright 2023 Fonticons, Inc. --><path d="M38.8 5.1C28.4-3.1 13.3-1.2 5.1 9.2S-1.2 34.7 9.2 42.9l592 464c10.4 8.2 25.5 6.3 33.7-4.1s6.3-25.5-4.1-33.7L600 445V24c0-13.3-10.7-24-24-24s-24 10.7-24 24V407.3l-80-62.7V120c0-13.3-10.7-24-24-24s-24 10.7-24 24V307l-80-62.7V216c0-13.3-10.7-24-24-24c-10.4 0-19.2 6.6-22.6 15.8L38.8 5.1zM576 512l-.2 0h.5l-.2 0zM472 488V467.9l-48-37.8V488c0 13.3 10.7 24 24 24s24-10.7 24-24zM344 367l-48-37.8V488c0 13.3 10.7 24 24 24s24-10.7 24-24V367zM192 288c-13.3 0-24 10.7-24 24V488c0 13.3 10.7 24 24 24s24-10.7 24-24V312c0-13.3-10.7-24-24-24zM64 384c-13.3 0-24 10.7-24 24v80c0 13.3 10.7 24 24 24s24-10.7 24-24V408c0-13.3-10.7-24-24-24z"/></svg>
